Origami/64x64/apps/ocrfeeder.svg

<svg width="64" height="64" version="1" xmlns="http://www.w3.org/2000/svg">
 <path d="m27.94499 5.0000024c-13.129913 4e-7 -23.94499 10.829398-23.94499 23.976693 4e-7 13.147298 10.815077 23.976696 23.94499 23.976696 2.502786 5.16e-4 4.958502-0.427792 7.315226-1.186348l5.795278 5.799052c2.096336 2.18625 5.432252 3.575278 8.425956 3.422452 2.993702-0.15284 5.4501-1.4612 7.24897-3.262452 1.798872-1.801254 3.105518-4.260902 3.258142-7.25857 0.15262-2.997668-1.23457-6.338-3.41793-8.437112l0.1169 0.11318-5.943376-5.95515c0.73442-2.320722 1.142794-4.73934 1.145812-7.20003v-0.0116c0-13.147295-10.815076-23.976692-23.944988-23.976692z" style="opacity:.2"/>
 <path d="m27.94499 4.0000008c-13.129913 4e-7 -23.94499 10.829397-23.94499 23.976693 4e-7 13.147298 10.815077 23.976696 23.94499 23.976696 2.502786 5.16e-4 4.958502-0.427792 7.315226-1.186348l5.795278 5.799052c2.096336 2.18625 5.432252 3.575278 8.425956 3.422452 2.993702-0.15284 5.4501-1.4612 7.24897-3.262452 1.798872-1.801254 3.105518-4.260902 3.258142-7.25857 0.15262-2.997668-1.23457-6.338-3.41793-8.437112l0.1169 0.11318-5.943376-5.95515c0.73442-2.320722 1.142794-4.73934 1.145812-7.20003v-0.0116c0-13.147296-10.815076-23.976693-23.944988-23.976693z" style="fill:#4f4f4f"/>
 <path d="m34.683832 39.851771 12.225892 12.225892c2.827528 2.944906 7.187094-1.41466 4.242188-4.242188l-12.41165-12.41165c-4.740262 1.576176-2.740262 1.576176-4.05643 4.427946z" style="opacity:.2"/>
 <path d="m 34.683832,38.85177 12.225892,12.225892 c 2.827528,2.944906 7.187094,-1.41466 4.242188,-4.242188 L 38.740262,34.423824 C 34,36 36,36 34.683832,38.85177 Z" style="fill:#a27f41"/>
 <path d="m38.740234 34.423828c-4.740262 1.576176-2.740472 1.575965-4.05664 4.427734l0.273437 0.273438c0.697925-2.119789-0.501905-2.276338 3.783203-3.701172l12.41211 12.41211c0.529153 0.508062 0.813128 1.065367 0.921875 1.621093 0.15648-0.860283-0.070174-1.803339-0.921875-2.621093l-12.41211-12.41211z" style="fill:#ffffff;opacity:.1"/>
 <path d="m28 13.000001a16 16 0 0 0 -16 16 16 16 0 0 0 16 16 16 16 0 0 0 16 -16 16 16 0 0 0 -16 -16z" style="opacity:.2"/>
 <path d="m28 12a16 16 0 0 0 -16 16 16 16 0 0 0 16 16 16 16 0 0 0 16 -16 16 16 0 0 0 -16 -16z" style="fill:#62aeff"/>
 <path d="M 28 12 A 16 16 0 0 0 12 28 A 16 16 0 0 0 12.021484 28.417969 A 16 16 0 0 1 28 13 A 16 16 0 0 1 43.978516 28.574219 A 16 16 0 0 0 44 28 A 16 16 0 0 0 28 12 z" style="fill:#ffffff;opacity:.1"/>
 <path d="m27.945312 4c-13.129913 4e-7 -23.945312 10.829266-23.945312 23.976562 0 0.16749 0.010179 0.333281 0.0136719 0.5 0.2711081-12.919774 10.969262-23.476562 23.93164-23.476562 12.923123 4e-7 23.596464 10.493082 23.929688 23.359375 0.002212-0.124119 0.015472-0.246753 0.015625-0.371094v-0.011719c0-13.147296-10.815401-23.976562-23.945313-23.976562zm23.015626 31.40625c-0.073439 0.26018-0.135201 0.52341-0.216797 0.78125l5.943359 5.957031-0.117188-0.113281c1.96906 1.893081 3.279703 4.792624 3.408204 7.542969 0.002204-0.036415 0.007903-0.070847 0.009765-0.107422 0.15262-2.997668-1.234609-6.336435-3.417969-8.435547l0.117188 0.113281-5.726562-5.738281z" style="fill:#ffffff;opacity:.1"/>
 <path d="m20 21.857142v2.857144 4.285714 5.714286 1.428572c0 2.857142 2 2.857142 2 2.857142s1.999 0 1.999-2.857142v-3.142858h8.001v3.142858c0 2.857142 2 2.857142 2 2.857142s2 0 2-2.857142v-14.285716s0-2.857142-2.666666-2.857142h-9.400334-1.266334c-2.666666 0-2.666666 2.857142-2.666666 2.857142zm3.999 1.142858h8.001v6h-8.001z" style="opacity:.2"/>
 <path d="m20 20.857142v2.857144 4.285714 5.714286 1.428572c0 2.857142 2 2.857142 2 2.857142s1.999 0 1.999-2.857142v-3.142858h8.001v3.142858c0 2.857142 2 2.857142 2 2.857142s2 0 2-2.857142v-14.285716s0-2.857142-2.666666-2.857142h-9.400334-1.266334c-2.666666 0-2.666666 2.857142-2.666666 2.857142zm3.999 1.142858h8.001v6h-8.001z" style="fill:#ffffff"/>
</svg>

<svg xmlns="http://www.w3.org/2000/svg" width="64" height="64" version="1">
 <path style="opacity:0.2" d="M 27.94499,5.0000024 C 14.815077,5.0000028 4.0000004,15.8294 4,28.976695 c 4e-7,13.147298 10.815077,23.976696 23.94499,23.976696 2.502786,5.16e-4 4.958502,-0.427792 7.315226,-1.186348 l 5.795278,5.799052 c 2.096336,2.18625 5.432252,3.575278 8.425956,3.422452 2.993702,-0.15284 5.4501,-1.4612 7.24897,-3.262452 1.798872,-1.801254 3.105518,-4.260902 3.258142,-7.25857 0.15262,-2.997668 -1.23457,-6.338 -3.41793,-8.437112 l 0.1169,0.11318 -5.943376,-5.95515 c 0.73442,-2.320722 1.142794,-4.73934 1.145812,-7.20003 l 0,-0.0116 c 0,-13.147295 -10.815076,-23.976692 -23.944988,-23.9766924 z"/>
 <path style="fill:#4f4f4f" d="M 27.94499,4.0000008 C 14.815077,4.0000012 4.0000004,14.829398 4,27.976694 c 4e-7,13.147298 10.815077,23.976696 23.94499,23.976696 2.502786,5.16e-4 4.958502,-0.427792 7.315226,-1.186348 l 5.795278,5.799052 c 2.096336,2.18625 5.432252,3.575278 8.425956,3.422452 2.993702,-0.15284 5.4501,-1.4612 7.24897,-3.262452 1.798872,-1.801254 3.105518,-4.260902 3.258142,-7.25857 0.15262,-2.997668 -1.23457,-6.338 -3.41793,-8.437112 l 0.1169,0.11318 -5.943376,-5.95515 c 0.73442,-2.320722 1.142794,-4.73934 1.145812,-7.20003 l 0,-0.0116 c 0,-13.147296 -10.815076,-23.9766926 -23.944988,-23.976693 z"/>
 <path style="opacity:0.2" d="m 34.683832,39.851771 12.225892,12.225892 c 2.827528,2.944906 7.187094,-1.41466 4.242188,-4.242188 L 38.740262,35.423825 C 34,37.000001 36,37.000001 34.683832,39.851771 Z"/>
 <path style="fill:#a27f41" d="m 34.683832,38.85177 12.225892,12.225892 c 2.827528,2.944906 7.187094,-1.41466 4.242188,-4.242188 L 38.740262,34.423824 C 34,36 36,36 34.683832,38.85177 Z"/>
 <path style="fill:#ffffff;opacity:0.1" d="M 38.740234 34.423828 C 33.999972 36.000004 35.999762 35.999793 34.683594 38.851562 L 34.957031 39.125 C 35.654956 37.005211 34.455126 36.848662 38.740234 35.423828 L 51.152344 47.835938 C 51.681497 48.344 51.965472 48.901305 52.074219 49.457031 C 52.230699 48.596748 52.004045 47.653692 51.152344 46.835938 L 38.740234 34.423828 z"/>
 <path style="opacity:0.2" d="m 28,13.000001 a 16,16 0 0 0 -16,16 16,16 0 0 0 16,16 16,16 0 0 0 16,-16 16,16 0 0 0 -16,-16 z"/>
 <path style="fill:#62aeff" d="M 28,12 A 16,16 0 0 0 12,28 16,16 0 0 0 28,44 16,16 0 0 0 44,28 16,16 0 0 0 28,12 Z"/>
 <path style="opacity:0.1;fill:#ffffff" d="M 28 12 A 16 16 0 0 0 12 28 A 16 16 0 0 0 12.021484 28.417969 A 16 16 0 0 1 28 13 A 16 16 0 0 1 43.978516 28.574219 A 16 16 0 0 0 44 28 A 16 16 0 0 0 28 12 z"/>
 <path style="fill:#ffffff;opacity:0.1" d="M 27.945312 4 C 14.815399 4.0000004 4.0000004 14.829266 4 27.976562 C 4 28.144052 4.010179 28.309843 4.0136719 28.476562 C 4.28478 15.556788 14.982934 5.0000004 27.945312 5 C 40.868435 5.0000004 51.541776 15.493082 51.875 28.359375 C 51.877212 28.235256 51.890472 28.112622 51.890625 27.988281 L 51.890625 27.976562 C 51.890625 14.829266 41.075224 4.0000004 27.945312 4 z M 50.960938 35.40625 C 50.887499 35.66643 50.825737 35.92966 50.744141 36.1875 L 56.6875 42.144531 L 56.570312 42.03125 C 58.539372 43.924331 59.850015 46.823874 59.978516 49.574219 C 59.98072 49.537804 59.986419 49.503372 59.988281 49.466797 C 60.140901 46.469129 58.753672 43.130362 56.570312 41.03125 L 56.6875 41.144531 L 50.960938 35.40625 z"/>
 <path style="opacity:0.2" d="M 20,21.857142 20,24.714286 20,29 l 0,5.714286 0,1.428572 C 20,39 22,39 22,39 c 0,0 1.999,0 1.999,-2.857142 L 23.999,33 32,33 32,36.142858 C 32,39 34,39 34,39 c 0,0 2,0 2,-2.857142 L 36,21.857142 C 36,21.857142 36,19 33.333334,19 L 23.933,19 22.666666,19 C 20,19 20,21.857142 20,21.857142 Z M 23.999,23 32,23 l 0,6 -8.001,0 z"/>
 <path style="fill:#ffffff" d="M 20,20.857142 20,23.714286 20,28 l 0,5.714286 0,1.428572 C 20,38 22,38 22,38 c 0,0 1.999,0 1.999,-2.857142 L 23.999,32 32,32 32,35.142858 C 32,38 34,38 34,38 c 0,0 2,0 2,-2.857142 L 36,20.857142 C 36,20.857142 36,18 33.333334,18 L 23.933,18 22.666666,18 C 20,18 20,20.857142 20,20.857142 Z M 23.999,22 32,22 l 0,6 -8.001,0 z"/>
</svg>
